static/app-icons/dark-theme/CloudManagedOAuthProxy.svg

<svg xmlns="http://www.w3.org/2000/svg" viewBox="0 0 32 32"><defs><linearGradient id="a" x1="10.25" y1="12.25" x2="20.75" y2="1.75" gradientUnits="userSpaceOnUse"><stop offset=".25"/><stop offset=".8" stop-opacity="0"/></linearGradient><linearGradient id="c" y1="32" x2="32" gradientUnits="userSpaceOnUse"><stop offset=".1" stop-color="#be95ff"/><stop offset=".9" stop-color="#4589ff"/></linearGradient><mask id="b" x="0" y="0" width="32" height="32" maskUnits="userSpaceOnUse"><path d="M13.252 12.78L2.007 24.025v6h6L18.4 19.637a9.028 9.028 0 0011.607-7.867 8.809 8.809 0 00-1.65-5.97 9.014 9.014 0 00-16.175 3.467l1.89 1.89a6.97 6.97 0 1113.935-.357 6.711 6.711 0 01-1.086 4 7.026 7.026 0 01-7.946 2.922l-1.147-.348-.847.848L13.8 21.4l-1.379-1.379-1.414 1.414 1.379 1.379L10.8 24.4l-1.379-1.375-1.414 1.414 1.379 1.379-2.207 2.207H4.007v-3.171L14.666 14.2z" fill="#fff"/><path fill="url(#a)" d="M10 2h11v10H10z"/></mask></defs><g data-name="Layer 2"><g data-name="Dark theme icons"><g mask="url(#b)"><path fill="url(#c)" d="M0 0h32v32H0z"/></g><circle cx="21.025" cy="11.025" r="2" fill="#f4f4f4"/></g></g></svg>

<svg xmlns="http://www.w3.org/2000/svg" xmlns:xlink="http://www.w3.org/1999/xlink" viewBox="0 0 32 32"><defs><style>.cls-1{fill:#fff;}.cls-2{fill:url(#linear-gradient);}.cls-3{mask:url(#mask);}.cls-4{fill:url(#linear-gradient-2);}.cls-5{fill:#f4f4f4;}</style><linearGradient id="linear-gradient" x1="10.25" y1="12.25" x2="20.75" y2="1.75" gradientUnits="userSpaceOnUse"><stop offset="0.25"/><stop offset="0.8" stop-opacity="0"/></linearGradient><mask id="mask" x="0" y="0" width="32" height="32" maskUnits="userSpaceOnUse"><path class="cls-1" d="M13.252,12.78,2.007,24.025v6h6L18.4,19.637A9.028,9.028,0,0,0,30.007,11.77,8.809,8.809,0,0,0,28.357,5.8,9.014,9.014,0,0,0,12.182,9.267l1.89,1.89A6.97,6.97,0,1,1,28.007,10.8a6.711,6.711,0,0,1-1.086,4,7.026,7.026,0,0,1-7.946,2.922l-1.147-.348-.847.848L13.8,21.4l-1.379-1.379-1.414,1.414,1.379,1.379L10.8,24.4,9.421,23.025,8.007,24.439l1.379,1.379L7.179,28.025H4.007V24.854L14.666,14.2Z"/><rect class="cls-2" x="10" y="2" width="11" height="10"/></mask><linearGradient id="linear-gradient-2" y1="32" x2="32" gradientUnits="userSpaceOnUse"><stop offset="0.1" stop-color="#be95ff"/><stop offset="0.9" stop-color="#4589ff"/></linearGradient></defs><g id="Layer_2" data-name="Layer 2"><g id="Dark_theme_icons" data-name="Dark theme icons"><g class="cls-3"><rect class="cls-4" width="32" height="32"/></g><circle class="cls-5" cx="21.025" cy="11.025" r="2"/></g></g></svg>
